X: 8
T:Forester, The
M:4/4
L:1/8
O:Fieldtown
P:A(AB)4
K:D
P:A
FA|dcde d2(3EFG|ABAF D2(3ABc|dcde  fede|fee^d e2(3gfe|
dcde dAFG|ABAF D2(3EFG|ABAG  FAde|fdec  d2|]
P:B
|:AG|FAdA FAdA|{c}B2G2 G2(3cBA|^GBeB ^GBed|{d}c2A2 A2(3BAG|
F2d2 d2(3ded|BABc d3f|gfed cABc|d2{e}d2{c}d2:|
</abc>
